X:1139
%%etbk:tnset id:166,pos:2,rep:3
%%etbk:site1 http://www.trad.katesplacedoolin.com/tunes/kilmovee.html
%%etbk:pldat 2013-05-06T18:59
T:Kilmovee Jig, The
Z: Piano Box Version by Martin Fleischmann
H: Created 2013-02-19 /  Last Modified 2013-04-02
R:jig
M:6/8
K: Gmaj
|: "G"!1!G2G !3!B2B | !1!GAB !2!A!1!G!2!E | !1!D!2!E!1!G !2!B!3!d!5!g | "D"!4!e!5!ge !3!d!1!B!2!A |
"G"!1!GGG !3!BBB | !4!ded !3!B!1!G!2!E | !1!D!2!E!1!G !2!B!3!d!5!g |1 "D"!4!e!3!d!2!B "G"!1!G2!2!F:|2 "D"!4!e!3!d!2!B "G"!1!G!2!B!3!d||
|: "G"!5!gGg !3!d!2!B!1!G | !3!A!2!G!1!E !2!G!1!E!2!F |!1!G!2!B!3!d !5!g2!4!f | "D"!2!e!5!ag !3!f!1!e!2!d |
"G"!1!B!2!B!1!B !4!d!3!B!2!A | !1!G!3!BG !2!A!1!G!2!E | !1!D!2!E!1!G !2!B!3!d!5!g|1 "D"!4!e!3!d!2!B "G"!1!G!2!B!3!d:|2 "D"!4!e!3!d!2!B "G"!1!G3||






